X:1
T:James Gibb editions
T:Psalm 136 (Becker) - Schütz
%%score [ ( 1 2 ) ( 3 4 ) ]
L:1/8
Q:1/4=98
M:3/4
K:F
V:1 treble nm="Soprano Alto"
V:2 treble 
V:3 bass nm="Tenor Bass"
V:4 bass 
V:1
"^Cornelius Becker\n(1561-1604)""^Psalm 136, SWV 241""^Heinrich Schütz\n(1585-1672)" G2 G2 G2 | %1
w: ~Dan- ket dem|
 A4 c2 | B4 G2 | A6 | A2 B2 c2 | d4 _e2 | c4 c2 | =B6 | G2 d2 e2 | f4 _e2 | d2 c4 | B6 | d2 c2 B2 | %13
w: Her- ren,|gebt ihm|Ehr,|der Herr ist|gut und|freund- lich|sehr;|denn sei- ne|gro- ße|Gü- tig-|keit|wäh- ret in|
 c4 B2 | A2 G4 | F4 A2 | (B2 d2) ^c2 | d4 B2 | (c2 B2) A2 | G12 |] %20
w: al- le|E- wig-|keit, Hal-|le\- * lu-|ja, Hal-|le\- * lu-|ja.|
V:2
 D2 D2 D2 | F4 G2 | G4 D2 | ^F6 | ^F2 G2 A2 | D4 G2 | G4 ^F2 | G6 | D2 D2 C2 | D4 _E2 | F4 F2 | %11
 F6 | F2 F2 D2 | F4 F2 | F2 E4 | F4 ^F2 | (G2 F2) A2 | A4 G2 | G4 ^F2 | G12 |] %20
V:3
 B,2 B,2 B,2 | C4 _E2 | D4 B,2 | D6 | D2 D2 F2 | F4 C2 | C4 C2 | D6 | B,2 A,2 G,2 | %9
"^2. Danket dem allerhöchsten Gott, \nihm stehn all Engel zu Gebot; \ndenn seine große Gütigkeit \nwähret in alle Ewigkeit, Halleluja, Halleluja.\n\n3. Danket dem Herren weit und fern, \ndem Herren über alle Herrn; \ndenn seine große Gütigkeit \nwähret in alle Ewigkeit, Halleluja, Halleluja.\n\n4. Die Wunder groß in allem Land \nschafft er allein durch seine Hand; \ndenn seine große Gütigkeit \nwähret in alle Ewigkeit, Halleluja, Halleluja.\n\n5. Den Himmel mit all seiner Pracht \nhat er so ordentlich gemacht; \ndenn seine große Gütigkeit \nwähret in alle Ewigkeit, Halleluja, Halleluja.\n\n6. Er hat am tiedfen Meer bereit \nden Kreis der Erden groß und breit; \ndenn seine große Gütigkeit \nwähret in alle Ewigkeit, Halleluja, Halleluja.\n\n7. Zwei Lichter groß hat er gemacht, \nzu unterscheiden Tag und Nacht; \ndenn seine große Gütigkeit \nwähret in alle Ewigkeit, Halleluja, Halleluja." (A,2 B,2) G,2 | %10
 B,2 A,4 | B,6 | B,2 A,2 G,2 | A,4 D2 | %14
 C2"^8. Des Morgens früh geht auf die Sonn \nund gibt dem Tage Licht und Wonn; \ndenn seine große Gütigkeit \nwähret in alle Ewigkeit, Halleluja, Halleluja.\n\n9. Des Mondes Licht, viel tausend Stern\nglänzen am Abend weit und fern; \ndenn seine große Gütigkeit \nwähret in alle Ewigkeit, Halleluja, Halleluja.\n\n23. Der Herr uns ein Erlösung sandt \nund half uns aus der Feinde Hand; \ndenn seine große Gütigkeit \nwähret in alle Ewigkeit, Halleluja, Halleluja.\n\n24. Allem Fleisch gibt er seine Speis,\nversorget uns mit allem Fleiß; \ndenn seine große Gütigkeit \nwähret in alle Ewigkeit, Halleluja, Halleluja.\n\n25. Drum danket Gott vom Himmelreich, \nund lobt sein Namen allzugleich! \nDenn seine große Gütigkeit \nwähret in alle Ewigkeit, Halleluja, Halleluja." C4 | %15
 C4 D2 | D4 E2 | ^F4 D2 | (_E2 D2) D2 | D12 |] %20
V:4
 G,2 G,2 G,2 | F,4 C,2 | G,4 G,2 | D,6 | D,2 G,2 F,2 | B,4 C2 | A,4 A,2 | G,6 | G,2 F,2 E,2 | %9
 D,4 C,2 | B,,2 F,4 | B,,6 | B,,2 F,2 G,2 | F,4 B,,2 | F,2 C,4 | F,4 D,2 | (G,2 B,2) A,2 | %17
 D,4 G,2 | (C,2 G,2) D,2 | G,12 |] %20

